X: 141
T: Yin niusi
%%abc-version 2.0
%%abcx-abcm2ps-target-version 5.9.1 (29 Sep 2008)
%%abc-creator hum2abc beta
%%abcx-conversion-date 2013/10/02 07:52:29
%%abc-edited-by Helmut Schaffrath
%%humdrum-veritas 1325486942
%%humdrum-veritas-data 1833896413
%%continueall 1
%%barnumbers 0
L: 1/8
M: 2/4
K: F
FF2G [I:setbarnb 1]| 
A B A G | 
F D A G | 
F4 | 
FF2G | 
A B A G | 
F D A G | 
F4 | 
D D F C | 
D4 | 
F D A G | 
F4 | 
c df2 | 
d f d c | 
AG2A | 
c d A G | 
F4 |]  



